Newaita-dark/actions/24/document-print.svg

<?xml version="1.0" encoding="UTF-8"?>
<svg xmlns="http://www.w3.org/2000/svg" xmlns:xlink="http://www.w3.org/1999/xlink" width="24pt" height="24pt" viewBox="0 0 24 24" version="1.1">
<g id="surface1">
<path style=" stroke:none;fill-rule:nonzero;fill:rgb(74.117649%,74.117649%,74.117649%);fill-opacity:1;" d="M 5.457031 1.179688 C 4.632812 1.179688 3.96875 1.84375 3.96875 2.667969 L 3.96875 12.09375 L 3.472656 12.09375 C 2.648438 12.09375 1.984375 12.757812 1.984375 13.582031 L 1.984375 18.046875 C 1.984375 18.875 2.648438 19.535156 3.472656 19.535156 L 3.96875 19.535156 L 3.96875 18.046875 C 3.695312 18.046875 3.472656 17.828125 3.472656 17.550781 L 3.472656 14.078125 C 3.472656 13.804688 3.695312 13.582031 3.96875 13.582031 L 19.84375 13.582031 C 20.121094 13.582031 20.339844 13.804688 20.339844 14.078125 L 20.339844 17.550781 C 20.339844 17.828125 20.121094 18.046875 19.84375 18.046875 L 19.84375 19.535156 L 20.339844 19.535156 C 21.167969 19.535156 21.832031 18.875 21.832031 18.046875 L 21.832031 13.582031 C 21.832031 12.757812 21.167969 12.09375 20.339844 12.09375 L 19.84375 12.09375 L 19.84375 2.667969 C 19.84375 1.84375 19.183594 1.179688 18.355469 1.179688 Z M 5.953125 2.667969 L 17.859375 2.667969 C 18.136719 2.667969 18.355469 2.890625 18.355469 3.164062 L 18.355469 12.09375 L 5.457031 12.09375 L 5.457031 3.164062 C 5.457031 2.890625 5.679688 2.667969 5.953125 2.667969 Z M 5.953125 2.667969 "/>
<path style=" stroke:none;fill-rule:nonzero;fill:rgb(47.058824%,56.470591%,61.176473%);fill-opacity:1;" d="M 5.457031 15.136719 C 4.632812 15.136719 3.96875 15.800781 3.96875 16.625 L 3.96875 21.523438 C 3.96875 22.347656 4.632812 23.011719 5.457031 23.011719 L 18.355469 23.011719 C 19.183594 23.011719 19.84375 22.347656 19.84375 21.523438 L 19.84375 16.625 C 19.84375 15.800781 19.183594 15.136719 18.355469 15.136719 Z M 5.953125 16.625 L 17.859375 16.625 C 18.136719 16.625 18.355469 16.847656 18.355469 17.121094 L 18.355469 21.027344 C 18.355469 21.300781 18.136719 21.523438 17.859375 21.523438 L 5.953125 21.523438 C 5.679688 21.523438 5.457031 21.300781 5.457031 21.027344 L 5.457031 17.121094 C 5.457031 16.847656 5.679688 16.625 5.953125 16.625 Z M 5.953125 16.625 "/>
</g>
</svg>

<svg xmlns="http://www.w3.org/2000/svg" width="32" height="32" viewBox="0 0 24 24"><path d="M5.457 1.18c-.824 0-1.488.664-1.488 1.488v9.426h-.496c-.825 0-1.489.664-1.489 1.488v4.465c0 .828.664 1.488 1.489 1.488h.496v-1.488a.494.494 0 0 1-.496-.496v-3.473c0-.273.222-.496.496-.496h15.875c.277 0 .496.223.496.496v3.473a.492.492 0 0 1-.496.496v1.488h.496c.828 0 1.492-.66 1.492-1.488v-4.465c0-.824-.664-1.488-1.492-1.488h-.496V2.668c0-.824-.66-1.488-1.489-1.488zm.496 1.488H17.86c.278 0 .496.223.496.496v8.93H5.457v-8.93c0-.273.223-.496.496-.496zm0 0" fill="#bdbdbd"/><path d="M5.457 15.137c-.824 0-1.488.664-1.488 1.488v4.898c0 .825.664 1.489 1.488 1.489h12.898c.829 0 1.489-.664 1.489-1.489v-4.898c0-.824-.66-1.488-1.489-1.488zm.496 1.488H17.86c.278 0 .496.223.496.496v3.906a.494.494 0 0 1-.496.496H5.953a.497.497 0 0 1-.496-.496v-3.906c0-.273.223-.496.496-.496zm0 0" fill="#78909c"/></svg>
